assets/quoteIcon.svg

<svg width="30" height="30" viewBox="0 0 30 30" fill="none" xmlns="http://www.w3.org/2000/svg">
<path d="M19.6155 16.1553H23.654C24.1348 16.1553 24.5435 16.3235 24.8801 16.6601C25.2165 16.9967 25.3849 17.4053 25.3849 17.8862V18.4629C25.3849 19.737 24.9341 20.8246 24.0325 21.7262C23.1311 22.6274 22.0432 23.0782 20.7692 23.0782H19.6155C19.303 23.0782 19.0327 23.1925 18.8042 23.4207C18.5759 23.6491 18.4617 23.9195 18.4617 24.232V26.5399C18.4617 26.8523 18.576 27.1229 18.8042 27.3513C19.0326 27.5794 19.303 27.6938 19.6155 27.6938H20.7692C22.0194 27.6938 23.212 27.4502 24.348 26.9637C25.4838 26.4768 26.4662 25.8187 27.2957 24.9893C28.125 24.1602 28.783 23.1777 29.2698 22.0417C29.7566 20.9059 30 19.7129 30 18.4629V5.77094C30 4.80889 29.6636 3.99202 28.9905 3.31868C28.3174 2.64572 27.4999 2.30927 26.5384 2.30927H19.615C18.6536 2.30927 17.8364 2.64572 17.1632 3.31868C16.4902 3.99202 16.1536 4.80889 16.1536 5.77094V12.6937C16.1536 13.6555 16.4902 14.4724 17.1636 15.1458C17.8365 15.8187 18.6541 16.1553 19.6155 16.1553Z" fill="#001E20"/>
<path d="M1.00899 15.1458C1.68189 15.8187 2.4992 16.1553 3.46087 16.1553H7.49931C7.97985 16.1553 8.38898 16.3235 8.72499 16.6601C9.06169 16.9967 9.22978 17.4053 9.22978 17.8862V18.4629C9.22978 19.737 8.77898 20.8246 7.87787 21.7262C6.9767 22.6274 5.88893 23.0782 4.61431 23.0782H3.4608C3.14829 23.0782 2.87777 23.1925 2.64949 23.4207C2.42134 23.6491 2.30673 23.9195 2.30673 24.232V26.5399C2.30673 26.8523 2.42128 27.1229 2.64949 27.3513C2.8777 27.5794 3.14822 27.6938 3.4608 27.6938H4.61431C5.86512 27.6938 7.05753 27.4502 8.19379 26.9637C9.32943 26.4768 10.3116 25.8187 11.141 24.9893C11.9704 24.1602 12.6287 23.1777 13.1153 22.0417C13.602 20.9059 13.8457 19.7129 13.8457 18.4629V5.77094C13.8457 4.80889 13.509 3.99202 12.8361 3.31868C12.1632 2.64572 11.3458 2.30927 10.3842 2.30927H3.46124C2.49958 2.30927 1.68233 2.64572 1.00943 3.31868C0.336036 3.99202 3.14713e-05 4.80889 3.14713e-05 5.77094V12.6937C-3.24249e-05 13.6556 0.336036 14.4724 1.00899 15.1458Z" fill="#001E20"/>
</svg>

<svg xmlns="http://www.w3.org/2000/svg" width="30" height="30" fill="#001e20" xmlns:v="https://vecta.io/nano"><path d="M19.616 16.155h4.038a1.67 1.67 0 0 1 1.226.505 1.67 1.67 0 0 1 .505 1.226v.577a4.44 4.44 0 0 1-1.352 3.263c-.902.9-2 1.352-3.263 1.352h-1.154a1.11 1.11 0 0 0-.811.343 1.11 1.11 0 0 0-.343.811v2.308a1.11 1.11 0 0 0 .343.811 1.11 1.11 0 0 0 .811.343h1.154c1.25 0 2.443-.244 3.58-.73S26.468 25.82 27.298 25s1.487-1.812 1.974-2.948a8.99 8.99 0 0 0 .73-3.579V5.77a3.33 3.33 0 0 0-1.01-2.452 3.34 3.34 0 0 0-2.452-1.01h-6.923c-.96 0-1.78.336-2.452 1s-1 1.5-1 2.452v6.923c0 .962.337 1.78 1 2.452s1.5 1 2.452 1zM1 15.146c.673.673 1.5 1 2.452 1H7.5c.48 0 .9.168 1.226.505a1.71 1.71 0 0 1 .505 1.226v.577a4.44 4.44 0 0 1-1.352 3.263 4.45 4.45 0 0 1-3.264 1.352H3.46a1.11 1.11 0 0 0-.811.343 1.11 1.11 0 0 0-.343.811v2.308a1.11 1.11 0 0 0 .343.811 1.11 1.11 0 0 0 .811.343h1.154c1.25 0 2.443-.244 3.58-.73s2.118-1.145 2.947-1.974 1.488-1.812 1.974-2.948a9.01 9.01 0 0 0 .73-3.58V5.77c0-.962-.337-1.78-1-2.452a3.34 3.34 0 0 0-2.452-1.01H3.46a3.33 3.33 0 0 0-2.452 1.01C.336 3.992 0 4.8 0 5.77v6.923a3.33 3.33 0 0 0 1.01 2.452z"/></svg>
